usr/share/icons/Ambiant-MATE/apps/16/session-properties.svg

<?xml version="1.0" encoding="UTF-8" standalone="no"?>
<!-- Created with Inkscape (http://www.inkscape.org/) -->
<svg
   xmlns:svg="http://www.w3.org/2000/svg"
   xmlns="http://www.w3.org/2000/svg"
   xmlns:xlink="http://www.w3.org/1999/xlink"
   version="1.0"
   width="16"
   height="16"
   id="svg3342">
  <defs
     id="defs3344">
    <linearGradient
       id="linearGradient3480">
      <stop
         id="stop3482"
         style="stop-color:#4b791d;stop-opacity:1"
         offset="0" />
      <stop
         id="stop3484"
         style="stop-color:#548820;stop-opacity:0"
         offset="1" />
    </linearGradient>
    <linearGradient
       x1="40.808029"
       y1="44.845047"
       x2="40.692394"
       y2="32.182285"
       id="linearGradient3144"
       xlink:href="#linearGradient3480"
       gradientUnits="userSpaceOnUse"
       gradientTransform="matrix(0,-0.5241142,-0.5575148,0,32.735771,69.1272)" />
    <linearGradient
       id="linearGradient3118">
      <stop
         id="stop3122"
         style="stop-color:#b1c948;stop-opacity:0"
         offset="0" />
      <stop
         id="stop3124"
         style="stop-color:#c2df43;stop-opacity:1"
         offset="1" />
    </linearGradient>
    <linearGradient
       x1="50.140636"
       y1="22.755106"
       x2="40.357491"
       y2="22.755106"
       id="linearGradient3142"
       xlink:href="#linearGradient3118"
       gradientUnits="userSpaceOnUse"
       gradientTransform="matrix(0.2807027,0,0,0.2638858,0.4859986,41.434644)" />
    <linearGradient
       id="linearGradient2238">
      <stop
         id="stop2240"
         style="stop-color:#ffffff;stop-opacity:1"
         offset="0" />
      <stop
         id="stop2242"
         style="stop-color:#ffffff;stop-opacity:0"
         offset="1" />
    </linearGradient>
    <linearGradient
       id="linearGradient3282">
      <stop
         id="stop3284"
         style="stop-color:#000000;stop-opacity:1"
         offset="0" />
      <stop
         id="stop3286"
         style="stop-color:#000000;stop-opacity:0"
         offset="1" />
    </linearGradient>
    <linearGradient
       x1="33.579403"
       y1="5.7086449"
       x2="33.579403"
       y2="16.323294"
       id="linearGradient2414"
       xlink:href="#linearGradient2536"
       gradientUnits="userSpaceOnUse"
       gradientTransform="matrix(0.2716144,0,0,0.2198978,-0.7524457,7.76258e-2)" />
    <linearGradient
       x1="16.91585"
       y1="7.0006418"
       x2="16.91585"
       y2="14"
       id="linearGradient2416"
       xlink:href="#linearGradient2529"
       gradientUnits="userSpaceOnUse"
       gradientTransform="matrix(0.3333333,0,0,0.3333689,7.1074495e-4,-1.0004803)" />
    <linearGradient
       x1="24.682861"
       y1="9.2416716"
       x2="24.682861"
       y2="13.523027"
       id="linearGradient2419"
       xlink:href="#linearGradient3282"
       gradientUnits="userSpaceOnUse"
       gradientTransform="matrix(0.3042808,0,0,0.2340042,0.6993307,2.8374077)" />
    <linearGradient
       x1="24.675762"
       y1="1.6925697"
       x2="24.675762"
       y2="44.295784"
       id="linearGradient2422"
       xlink:href="#linearGradient2238"
       gradientUnits="userSpaceOnUse"
       gradientTransform="matrix(0.2885901,0,0,0.281741,1.0734846,1.5216393)" />
    <radialGradient
       cx="26.616697"
       cy="-2.0644982"
       r="23"
       fx="26.616697"
       fy="-2.0644982"
       id="radialGradient2425"
       xlink:href="#linearGradient3242-593-605-251-305"
       gradientUnits="userSpaceOnUse"
       gradientTransform="matrix(0,-0.3743803,0.4655272,0,11.988014,19.393247)" />
    <linearGradient
       x1="10.014208"
       y1="44.960102"
       x2="10.014208"
       y2="-11.86743"
       id="linearGradient2427"
       xlink:href="#linearGradient3332-412-419-652-471"
       gradientUnits="userSpaceOnUse"
       gradientTransform="matrix(0.3191203,0,0,0.3174019,0.3411154,0.3333387)" />
    <linearGradient
       id="linearGradient3332-412-419-652-471">
      <stop
         id="stop2759"
         style="stop-color:#650d5c;stop-opacity:1"
         offset="0" />
      <stop
         id="stop2761"
         style="stop-color:#ad53a5;stop-opacity:1"
         offset="1" />
    </linearGradient>
    <linearGradient
       id="linearGradient3242-593-605-251-305">
      <stop
         id="stop2749"
         style="stop-color:#d78ec1;stop-opacity:1"
         offset="0" />
      <stop
         id="stop2751"
         style="stop-color:#c564be;stop-opacity:1"
         offset="0.26238" />
      <stop
         id="stop2753"
         style="stop-color:#9d3ea4;stop-opacity:1"
         offset="0.66093999" />
      <stop
         id="stop2755"
         style="stop-color:#5e2c73;stop-opacity:1"
         offset="1" />
    </linearGradient>
    <linearGradient
       id="linearGradient2529">
      <stop
         id="stop2531"
         style="stop-color:#aeae94;stop-opacity:1"
         offset="0" />
      <stop
         id="stop2533"
         style="stop-color:#626337;stop-opacity:1"
         offset="1" />
    </linearGradient>
    <linearGradient
       id="linearGradient2536">
      <stop
         id="stop2538"
         style="stop-color:#fdfdf8;stop-opacity:1"
         offset="0" />
      <stop
         id="stop2555"
         style="stop-color:#d6d3b4;stop-opacity:1"
         offset="1" />
    </linearGradient>
    <linearGradient
       id="linearGradient8265-821-176-38-919-66-249">
      <stop
         id="stop2687"
         style="stop-color:#ffffff;stop-opacity:1"
         offset="0" />
      <stop
         id="stop2689"
         style="stop-color:#ffffff;stop-opacity:0"
         offset="1" />
    </linearGradient>
    <linearGradient
       x1="22.762604"
       y1="-4.8771"
       x2="22.762604"
       y2="43.84375"
       id="linearGradient2617"
       xlink:href="#linearGradient2238"
       gradientUnits="userSpaceOnUse"
       gradientTransform="matrix(0.4662133,0,0,0.4354479,-27.896672,-3.5408049)" />
    <linearGradient
       x1="33.579403"
       y1="5.7086449"
       x2="33.579403"
       y2="16.323294"
       id="linearGradient2620"
       xlink:href="#linearGradient2536"
       gradientUnits="userSpaceOnUse"
       gradientTransform="matrix(0.4164756,0,0,0.3298469,-30.12814,-5.1616736)" />
    <linearGradient
       x1="16.91585"
       y1="7.0006418"
       x2="16.91585"
       y2="14"
       id="linearGradient2622"
       xlink:href="#linearGradient2529"
       gradientUnits="userSpaceOnUse"
       gradientTransform="matrix(0.5111111,0,0,0.5000534,-28.973299,-6.7788335)" />
    <linearGradient
       x1="24.682861"
       y1="9.2416716"
       x2="24.682861"
       y2="13.523027"
       id="linearGradient2625"
       xlink:href="#linearGradient3282"
       gradientUnits="userSpaceOnUse"
       gradientTransform="matrix(0.4781556,0,0,0.2340043,-28.179466,-1.690703)" />
    <linearGradient
       x1="16.626165"
       y1="15.298182"
       x2="20.054544"
       y2="24.627615"
       id="linearGradient2628"
       xlink:href="#linearGradient8265-821-176-38-919-66-249"
       gradientUnits="userSpaceOnUse"
       gradientTransform="matrix(0.4789116,0,0,0.5359383,-28.200868,-5.7269934)" />
    <radialGradient
       cx="26.616697"
       cy="-2.0644982"
       r="23"
       fx="26.616697"
       fy="-2.0644982"
       id="radialGradient2631"
       xlink:href="#linearGradient3242-593-605-251-305"
       gradientUnits="userSpaceOnUse"
       gradientTransform="matrix(0,-0.5472088,0.7138538,0,-10.476777,23.190498)" />
    <linearGradient
       x1="10.014208"
       y1="44.960102"
       x2="10.014208"
       y2="2.8764627"
       id="linearGradient2633"
       xlink:href="#linearGradient3332-412-419-652-471"
       gradientUnits="userSpaceOnUse"
       gradientTransform="matrix(0.489349,0,0,0.463927,-28.33649,-4.668206)" />
    <radialGradient
       cx="26.616697"
       cy="-2.0644982"
       r="23"
       fx="26.616697"
       fy="-2.0644982"
       id="radialGradient3414"
       xlink:href="#linearGradient3242-593-605-251-305"
       gradientUnits="userSpaceOnUse"
       gradientTransform="matrix(0,-0.5472088,0.7138538,0,-10.476777,23.190498)" />
    <linearGradient
       x1="10.014208"
       y1="44.960102"
       x2="10.014208"
       y2="2.8764627"
       id="linearGradient3416"
       xlink:href="#linearGradient3332-412-419-652-471"
       gradientUnits="userSpaceOnUse"
       gradientTransform="matrix(0.489349,0,0,0.463927,-28.33649,-4.668206)" />
    <radialGradient
       cx="26.616697"
       cy="-2.0644982"
       r="23"
       fx="26.616697"
       fy="-2.0644982"
       id="radialGradient3421"
       xlink:href="#linearGradient3242-593-605-251-305"
       gradientUnits="userSpaceOnUse"
       gradientTransform="matrix(0,-0.37443,0.4655736,0,12.06397,19.439028)" />
    <linearGradient
       x1="10.014208"
       y1="44.960102"
       x2="10.014208"
       y2="2.8764627"
       id="linearGradient3423"
       xlink:href="#linearGradient3332-412-419-652-471"
       gradientUnits="userSpaceOnUse"
       gradientTransform="matrix(0.3191521,0,0,0.317444,0.4159119,0.37659)" />
  </defs>
  <rect
     width="14.997868"
     height="12.997867"
     rx="1.5284374"
     ry="1.5617938"
     x="0.50106621"
     y="1.5010664"
     id="rect1316"
     style="fill:url(#radialGradient2425);fill-opacity:1;fill-rule:evenodd;stroke:url(#linearGradient2427);stroke-width:1.00213289;stroke-linecap:round;stroke-linejoin:round;marker:none;marker-start:none;marker-mid:none;marker-end:none;stroke-miterlimit:4;stroke-dasharray:none;stroke-dashoffset:0;stroke-opacity:1;visibility:visible;display:inline;overflow:visible;enable-background:accumulate" />
  <rect
     width="12.997868"
     height="10.997867"
     rx="0.53651923"
     ry="0.53651923"
     x="1.5010662"
     y="2.5010664"
     id="rect2232"
     style="opacity:0.4;fill:none;stroke:url(#linearGradient2422);stroke-width:1.00213301;stroke-linecap:round;stroke-linejoin:round;stroke-miterlimit:4;stroke-dasharray:none;stroke-dashoffset:0;stroke-opacity:1" />
  <rect
     width="14"
     height="1"
     rx="0"
     ry="0"
     x="1"
     y="5"
     id="rect1436"
     style="opacity:0.2;fill:url(#linearGradient2419);fill-opacity:1;fill-rule:evenodd;stroke:none;stroke-width:1.00000012;stroke-linecap:butt;stroke-linejoin:miter;marker:none;marker-start:none;marker-mid:none;marker-end:none;stroke-miterlimit:4;stroke-dasharray:none;stroke-dashoffset:0;stroke-opacity:1;visibility:visible;display:inline;overflow:visible" />
  <path
     d="M 1.500711,1.5000001 C 1.500711,1.5000001 14.612789,1.5028629 14.612789,1.5028629 C 15.13443,1.5028629 15.500711,1.9233048 15.500711,2.3885518 C 15.500711,2.3885518 15.500711,4.5 15.500711,4.5 C 15.500711,4.5 0.50071114,4.5 0.50071114,4.5 C 0.50071114,4.5 0.50071114,2.3885518 0.50071114,2.3885518 C 0.50071114,1.8926584 0.90363933,1.5000001 1.500711,1.5000001 z"
     id="rect2311"
     style="fill:url(#linearGradient2414);fill-opacity:1;fill-rule:evenodd;stroke:url(#linearGradient2416);stroke-width:1;stroke-linecap:butt;stroke-linejoin:miter;marker:none;marker-start:none;marker-mid:none;marker-end:none;stroke-miterlimit:4;stroke-dasharray:none;stroke-dashoffset:0;stroke-opacity:1;visibility:visible;display:inline;overflow:visible" />
  <g
     transform="translate(1.3787875,-36.439394)"
     id="g3092">
    <path
       d="M 8.0000035,42.939394 L 3.1212125,47.439394 L 7.9999994,51.939394 L 7.9999994,48.939394 L 14,48.939394 L 14.06061,45.939394 L 8.0606095,45.939394 L 8.0000035,42.939394 L 8.0000035,42.939394 z"
       id="path3212"
       style="fill:url(#linearGradient3142);fill-opacity:1;fill-rule:nonzero;stroke:url(#linearGradient3144);stroke-width:0.99999994;stroke-linecap:round;stroke-linejoin:round;marker:none;stroke-miterlimit:4;stroke-dasharray:none;stroke-dashoffset:0;stroke-opacity:1;visibility:visible;display:inline;overflow:visible" />
  </g>
</svg>

<?xml version="1.0" encoding="UTF-8" standalone="no"?>
<!-- Created with Inkscape (http://www.inkscape.org/) -->
<svg id="svg3342" xmlns="http://www.w3.org/2000/svg" height="16" width="16" version="1.0" xmlns:xlink="http://www.w3.org/1999/xlink">
 <defs id="defs3344">
  <linearGradient id="linearGradient3144" y2="32.182" gradientUnits="userSpaceOnUse" x2="40.692" gradientTransform="matrix(0 -.52411 -.55751 0 32.736 69.127)" y1="44.845" x1="40.808">
   <stop id="stop3482" style="stop-color:#4b791d" offset="0"/>
   <stop id="stop3484" style="stop-color:#548820;stop-opacity:0" offset="1"/>
  </linearGradient>
  <linearGradient id="linearGradient3142" y2="22.755" gradientUnits="userSpaceOnUse" x2="40.357" gradientTransform="matrix(.28070 0 0 .26389 0.486 41.435)" y1="22.755" x1="50.141">
   <stop id="stop3122" style="stop-color:#b1c948;stop-opacity:0" offset="0"/>
   <stop id="stop3124" style="stop-color:#c2df43" offset="1"/>
  </linearGradient>
  <linearGradient id="linearGradient2414" y2="16.323" gradientUnits="userSpaceOnUse" x2="33.579" gradientTransform="matrix(.27161 0 0 .21990 -.75245 .077626)" y1="5.7086" x1="33.579">
   <stop id="stop2538" style="stop-color:#fdfdf8" offset="0"/>
   <stop id="stop2555" style="stop-color:#d6d3b4" offset="1"/>
  </linearGradient>
  <linearGradient id="linearGradient2416" y2="14" gradientUnits="userSpaceOnUse" x2="16.916" gradientTransform="matrix(.33333 0 0 .33337 .00071074 -1.0005)" y1="7.0006" x1="16.916">
   <stop id="stop2531" style="stop-color:#aeae94" offset="0"/>
   <stop id="stop2533" style="stop-color:#626337" offset="1"/>
  </linearGradient>
  <linearGradient id="linearGradient2419" y2="13.523" gradientUnits="userSpaceOnUse" x2="24.683" gradientTransform="matrix(.30428 0 0 0.234 .69933 2.8374)" y1="9.2417" x1="24.683">
   <stop id="stop3284" offset="0"/>
   <stop id="stop3286" style="stop-opacity:0" offset="1"/>
  </linearGradient>
  <linearGradient id="linearGradient2422" y2="44.296" gradientUnits="userSpaceOnUse" x2="24.676" gradientTransform="matrix(.28859 0 0 .28174 1.0735 1.5216)" y1="1.6926" x1="24.676">
   <stop id="stop2240" style="stop-color:#fff" offset="0"/>
   <stop id="stop2242" style="stop-color:#fff;stop-opacity:0" offset="1"/>
  </linearGradient>
  <radialGradient id="radialGradient2425" gradientUnits="userSpaceOnUse" cy="-2.0645" cx="26.617" gradientTransform="matrix(0 -.37438 .46553 0 11.988 19.393)" r="23">
   <stop id="stop2749" style="stop-color:#739D38" offset="0"/>
   <stop id="stop2751" style="stop-color:#567629" offset=".26238"/>
   <stop id="stop2753" style="stop-color:#405C20" offset=".66094"/>
   <stop id="stop2755" style="stop-color:#1C3210" offset="1"/>
  </radialGradient>
  <linearGradient id="linearGradient2427" y2="-11.867" gradientUnits="userSpaceOnUse" x2="10.014" gradientTransform="matrix(.31912 0 0 .31740 .34112 .33334)" y1="44.96" x1="10.014">
   <stop id="stop2759" style="stop-color:#405C20" offset="0"/>
   <stop id="stop2761" style="stop-color:#405C20" offset="1"/>
  </linearGradient>
 </defs>
 <rect id="rect1316" style="stroke-linejoin:round;stroke-width:1.0021;fill-rule:evenodd;stroke:url(#linearGradient2427);stroke-linecap:round;fill:url(#radialGradient2425)" rx="1.5284" ry="1.5618" height="12.998" width="14.998" y="1.5011" x=".50107"/>
 <rect id="rect2232" style="opacity:.4;stroke-linejoin:round;stroke:url(#linearGradient2422);stroke-linecap:round;stroke-width:1.0021;fill:none" rx=".53652" ry=".53652" height="10.998" width="12.998" y="2.5011" x="1.5011"/>
 <rect id="rect1436" style="opacity:.2;fill-rule:evenodd;fill:url(#linearGradient2419)" rx="0" ry="0" height="1" width="14" y="5" x="1"/>
 <path id="rect2311" style="fill-rule:evenodd;stroke:url(#linearGradient2416);fill:url(#linearGradient2414)" d="m1.5007 1.5l13.112 0.0029c0.521 0 0.888 0.4204 0.888 0.8857v2.1114h-15c-0.00029 0-0.00029-2.1114-0.00029-2.1114 0-0.4959 0.40293-0.8886 0.99999-0.8886z"/>
 <g id="g3092" transform="translate(1.3788 -36.439)">
  <path id="path3212" style="stroke-linejoin:round;stroke:url(#linearGradient3144);stroke-linecap:round;fill:url(#linearGradient3142)" d="m8 42.939l-4.8788 4.5 4.8788 4.5v-3h6l0.061-3h-6.0004l-0.0606-3z"/>
 </g>
</svg>
